packages/web-icons/svgs/gift_1.svg

<svg viewBox="0 0 46 48" xmlns="http://www.w3.org/2000/svg" class="ridi_icon"><path d="M3.9 48h18V26.2h-18V48zm20.3 0h18.1V26.2H24.2V48zm14.6-34.4c.7-.7 1.3-1.6 1.7-2.4.9-1.9 1.4-4.9.6-7.1-1-2.5-3.6-4.1-6.5-4.1-1 0-2 .2-2.9.6-2.7 1.3-4.5 3.8-6 6.1-.3.4-.5.8-.8 1.2-.1.2-.2.3-.4.5H22c-.1-.2-.2-.3-.4-.5-.3-.4-.5-.8-.8-1.2-1.6-2.2-3.3-4.8-6-6.1-.9-.4-1.9-.6-2.9-.6C9 0 6.4 1.7 5.4 4.1c-.8 2.2-.3 5.2.6 7.1.4.8.9 1.7 1.7 2.4H0v10.1h46V13.6h-7.2zm-19.5-1.3c-1.1.1-2.1.2-2.5.2-.3 0-.5 0-.9.1-.5 0-1.1.1-1.8.1-2.5 0-4.1-.9-5.1-2.9-.7-1.4-.9-3.4-.5-4.4.5-1.2 1.8-2 3.4-2 .5 0 1 .1 1.5.3 1.9.9 3.4 3 4.7 5l.9 1.2c.1.2.2.3.3.4v2zm18.2-2.5c-1 2-2.6 2.9-5.1 2.9-.7 0-1.3-.1-1.8-.1-.4 0-.6-.1-.9-.1-.4 0-1.3-.1-2.3-.2V10c.1-.1.1-.2.2-.2l.9-1.2c1.4-2 2.8-4 4.7-5 .4-.2.9-.3 1.5-.3 1.5 0 2.9.8 3.4 2 .3 1.1 0 3.1-.6 4.5z"/></svg>

<?xml version="1.0" encoding="UTF-8"?>
<svg width="46px" height="48px" viewBox="0 0 46 48" version="1.1" xmlns="http://www.w3.org/2000/svg">
  <!-- Generator: Sketch 41.2 (35397) - http://www.bohemiancoding.com/sketch -->
  <title>gift_1</title>
  <desc>Created with Sketch.</desc>
  <defs></defs>
  <g id="Page-1" stroke="none" stroke-width="1" fill="none" fill-rule="evenodd">
    <g id="gift_1" fill="#000000">
      <g id="레이어_1">
        <path d="M3.9,48 L21.9,48 L21.9,26.2 L3.9,26.2 C3.9,26.2 3.9,48 3.9,48 Z M24.2,48 L42.3,48 L42.3,26.2 L24.2,26.2 L24.2,48 Z M38.8,13.6 C39.5,12.9 40.1,12 40.5,11.2 C41.4,9.3 41.9,6.3 41.1,4.1 C40.1,1.6 37.5,0 34.6,0 C33.6,0 32.6,0.2 31.7,0.6 C29,1.9 27.2,4.4 25.7,6.7 C25.4,7.1 25.2,7.5 24.9,7.9 C24.8,8.1 24.7,8.2 24.5,8.4 L22,8.4 C21.9,8.2 21.8,8.1 21.6,7.9 C21.3,7.5 21.1,7.1 20.8,6.7 C19.2,4.5 17.5,1.9 14.8,0.6 C13.9,0.2 12.9,0 11.9,0 C9,0 6.4,1.7 5.4,4.1 C4.6,6.3 5.1,9.3 6,11.2 C6.4,12 6.9,12.9 7.7,13.6 L0,13.6 L0,23.7 L46,23.7 L46,13.6 L38.8,13.6 Z M19.3,12.3 C18.2,12.4 17.2,12.5 16.8,12.5 C16.5,12.5 16.3,12.5 15.9,12.6 C15.4,12.6 14.8,12.7 14.1,12.7 L14.1,12.7 C11.6,12.7 10,11.8 9,9.8 C8.3,8.4 8.1,6.4 8.5,5.4 C9,4.2 10.3,3.4 11.9,3.4 C12.4,3.4 12.9,3.5 13.4,3.7 C15.3,4.6 16.8,6.7 18.1,8.7 C18.4,9.1 18.7,9.5 19,9.9 C19.1,10.1 19.2,10.2 19.3,10.3 L19.3,12.3 L19.3,12.3 Z M37.5,9.8 C36.5,11.8 34.9,12.7 32.4,12.7 C31.7,12.7 31.1,12.6 30.6,12.6 C30.2,12.6 30,12.5 29.7,12.5 C29.3,12.5 28.4,12.4 27.4,12.3 L27.4,10.1 L27.4,10 C27.5,9.9 27.5,9.8 27.6,9.8 C27.9,9.4 28.2,9 28.5,8.6 C29.9,6.6 31.3,4.6 33.2,3.6 C33.6,3.4 34.1,3.3 34.7,3.3 C36.2,3.3 37.6,4.1 38.1,5.3 C38.4,6.4 38.1,8.4 37.5,9.8 L37.5,9.8 Z" id="Shape"></path>
      </g>
    </g>
  </g>
</svg>
